X:1
T:Tom's Creek Two Step
C:© 2000 Harry Bolick-harry@bolick.net
R:Breakdown
O:United States
A:Hastings On Hudson, New York
M:4/4
L:1/8
Q:300
K:G
 |: "G" d2 g2 "C" e4 | "G"  dedc BA G2 |"D" DFAD DFAF | "G"  FABc d4 | d2 g2 "C" e4 |
  "G"  dedc BA G2 | d2 dd de=fd | BG A2 G4 :||
|: "G" G,B,DF G4 | B2 B2 AG ED |  G,B,DF G4 | "C" c2 B2 "D" A4 |
"G"  G,B,DF G4 | B2 B2 AG ED |  d2 dd de=fd | BG A2 G4 :||
